X: 3742
T: Bird's Eye View, The
R: jig
M: 6/8
K: Amixolydian
|:"A"EFA caf|ecA ABc|"G"BAG GAB|"F"AG=F FGA|
"A"EFA caf|ecA ABc|"D"dcB "(Bm)"AFE|1 "E"EcB "A"A3:|2 "E"EcB "A"Ace||
"A"ace "D"faf|"A"ecA "Bm"BAF|"A"ace "D"faf|"E"^gfg"A" ~a3|
"D"afd "A"ecA|"G"BAG "D"AFD|"A"EFA "D"FED|1 "E"EcB "A"Ace:|2 "E"EcB "A"A2E||

